!!!!SEGMENT: pl-kk--kk-i-361--001_anonim--ave-hierarchia.krn
!!!cenid: 17xx:1961
!!!COM: Anonim
!!!COM-rismid: pe30004985
!!!CDT:
!!!CNT:
!!!OTL: Ave Hierarchia
!!!PDT:
!!!AGN: Sacred
!!!SMS-siglum: PL-Kk
!!!SMS-shelfmark: Kk.I.361
!!!SMS-shelfwork: 001 W
!!!SMS-variant:
!!!SMS-altvar:
!!!NIFC-rismid: 1001144500
!!!URL-scan: http://repozytorium.nifc.pl/skany/pl-kk-nut--i-361
!!!ONB-nifc: UWAGA: utwory w zbiorze: 1. Ave Hierarchia, 2. Ave Maria
!!!AIN: 1 bass
!!!key:
**kern	**text	**text
*Ibass	*	*
*I"Basso	*	*
*I'B	*	*
*clefF4	*	*
*k[b-]	*	*
*b-:	*	*
*M2/1	*	*
=1-	=1-	=1-
!LO:TX:a:t=Pro Offertorio I.	!	!
1F\	A-	Ma-
*2\right	*	*
2D\	-ve	-ri-
2.F\	Hie-	-a
=2-	=2-	=2-
.	.	.
4E\	.	.
4D\	.	.
!LO:TX:t=P:problem=kreska pseudotaktowa	!	!
4C\	.	.
2BB-/	.	.
2GG/	-rar-	be-
=3-	=3-	=3-
!LO:TX:t=P:problem=kreska pseudotaktowa	!	!
0C/	-chi-	-a-
=4-	=4-	=4-
2FF,</	-a!	-ta
1F\	Cae-	do-
2E\	-le-	-ce
=5-	=5-	=5-
1D\	.	nos
4C/	.	.
4BB-/	.	.
4AA/	.	.
!LO:TX:t=P:problem=kreska pseudotaktowa	!	!
4GG/	.	.
=6-	=6-	=6-
2FF,</	-stis	.
1F\	et	man-
2E\	pi-	.
=7-	=7-	=7-
2.F\	.	-da-
!LO:TX:t=P:problem=kreska pseudotaktowa	!	!
4E\	.	.
1D\	.	.
=8-	=8-	=8-
!LO:TX:t=P:problem=kreska pseudotaktowa	!	!
0C/,<	-as	-ta
=9-	=9-	=9-
2.GG/	De-	no-
4AA/	.	.
2BB-/	.	.
2C/	.	.
!!LO:LB:g=original
=10-	=10-	=10-
2AA,</	-i	-vae
4D/	Mo-	le-
!LO:TX:t=P:problem=kreska pseudotaktowa	!	!
4C/	.	.
4BB-/	.	.
4AA/	.	.
2GG/	.	.
=11-	=11-	=11-
2AA/	.	.
!LO:TX:t=P:problem=kreska pseudotaktowa	!	!
2FF/	-nar-	.
1C/	-chi-	gis
=12-	=12-	=12-
(2D/	-a	.
2BB-,</)	.	.
2AA/	De-	no-
!LO:TX:t=P:problem=kreska pseudotaktowa	!	!
2BB-/	-i	-vae
=13-	=13-	=13-
1C/	Mo-	le-
(2BB-/	-nar-	-gis
2AA/)	.	.
=14-	=14-	=14-
!LO:TX:t=P:problem=kreska pseudotaktowa	!	!
1GG/	-chi-	gra-
2FF,</	-a	-ta,
1F\	reſ-	fac
=15-	=15-	=15-
.	.	.
2E\	-pi-	sev-
2D/	-ce	-va-
2BB-/	nos	-re-
=16-	=16-	=16-
1C/	Di-	-ra-
!LO:TX:t=P:problem=kreska pseudotaktowa	!	!
1GG/,<	-a	-ta
=17-	=17-	=17-
2r	.	.
2G\	ut	Vir-
2E\	e-	.
2.G\	-ru-	-go
=18-	=18-	=18-
.	.	.
4F\	-a-	.
1F\	.	Vir-
2E\	.	-gi-
!!LO:LB:g=original
=19-	=19-	=19-
2.F\	.	-n(um)
4G\	.	.
2.A\	.	Vir-
!LO:TX:t=P:problem=kreska pseudotaktowa	!	!
4G\	.	.
=20-	=20-	=20-
2F\	.	.
2E\	.	-gi-
1D\	.	.
=21-	=21-	=21-
!LO:TX:t=P:problem=kreska pseudotaktowa	!	!
1AA/,<	-mur	-num
1C/	er-	et
=22-	=22-	=22-
1D\	-ran-	in-
1E\	.	-te-
=23-	=23-	=23-
!LO:TX:t=P:problem=kreska pseudotaktowa	!	!
1F\	-tes	-me-
2.G\	in	-ra-
8F\L	vi-	.
8E\J	.	.
=24-	=24-	=24-
4D\	.	.
4E\	.	.
!LO:TX:t=P:problem=kreska pseudotaktowa	!	!
2F,\	-a	-ta
1E\	er-	.
=25-	=25-	=25-
2D/	-ran-	et
2BB-/	.	in-
!LO:TX:t=P:problem=kreska pseudotaktowa	!	!
1D\	.	-te-
=26-	=26-	=26-
2C/	.	-me-
2BB-/	.	.
1C/	-tes	-ra-
!!linebreak:original
=27-	=27-	=27-
2FF,</	in	-ta
2F\	vi-	.
2.F\	.	in-
4E\	.	.
=28-	=28-	=28-
2.D/	.	-te-
!LO:TX:t=P:problem=kreska pseudotaktowa	!	!
4C/	.	-me-
!!LO:LB;g=original
2BB-/	.	-ra-
2AA/	.	.
=29-	=29-	=29-
0BB-/	.	.
=30-	=30-	=30-
0F\	-a.	-ta.
=-	=-	=-
*-	*-	*-
!!!RDF**kern: > = above
!!!RDF**kern: < = below
!!!EED: Leszek Kubiak
!!!EST: 2021-02-24
!!!ENC: Tomasz Grochalski
!!!END: 2021-02-06
